svgs/thin/h3.svg

<svg xmlns="http://www.w3.org/2000/svg" viewBox="0 0 640 512"><!--! Font Awesome Pro 6.3.0 by @fontawesome - https://fontawesome.com License - https://fontawesome.com/license (Commercial License) Copyright 2023 Fonticons, Inc. --><path d="M311.8 64.44c-4.419 0-7.995 3.59-7.995 7.991v167.8H15.99V72.43c0-4.401-3.576-7.991-7.995-7.991S0 68.03 0 72.43v367.6C0 444.4 3.576 448 7.995 448s7.995-3.59 7.995-7.991V256.2h287.8v183.8C303.8 444.4 307.4 448 311.8 448s7.995-3.59 7.995-7.991V72.43C319.8 68.03 316.2 64.44 311.8 64.44zM526.9 240.2h-83.93l162.3-162.6c2.295-2.279 2.967-5.743 1.733-8.709C605.7 65.94 602.8 64 599.6 64H391.7c-4.419 0-7.995 3.59-7.995 7.991c0 4.401 3.576 7.991 7.995 7.991h188.6l-162.3 162.6c-2.295 2.279-2.967 5.743-1.733 8.709c1.234 2.997 4.153 4.932 7.386 4.932h103.2c45.48 0 81.1 38.18 81.1 86.9c0 48.79-36.38 88.46-81.1 88.46h-72.26c-25.75 0-47.44-16.42-55.28-41.86c-1.28-4.214-5.715-6.43-9.993-5.306c-4.216 1.311-6.589 5.775-5.278 9.989c9.931 32.31 37.63 53.16 70.55 53.16h72.26c53.54 0 97.09-46.85 97.09-104.4C624 285.4 581.4 240.2 526.9 240.2z"/></svg>

<svg xmlns="http://www.w3.org/2000/svg" viewBox="0 0 640 512"><!-- Font Awesome Pro 6.0.0-alpha2 by @fontawesome - https://fontawesome.com License - https://fontawesome.com/license (Commercial License) --><path d="M311.789 64.437C307.37 64.437 303.795 68.027 303.795 72.428V240.237H15.989V72.428C15.989 68.027 12.413 64.437 7.995 64.437S0 68.027 0 72.428V440.009C0 444.41 3.576 448 7.995 448S15.989 444.41 15.989 440.009V256.219H303.795V440.009C303.795 444.41 307.37 448 311.789 448S319.784 444.41 319.784 440.009V72.428C319.784 68.027 316.208 64.437 311.789 64.437ZM526.909 240.237H442.982L605.247 77.641C607.542 75.362 608.214 71.897 606.98 68.932C605.747 65.935 602.827 64 599.595 64H391.735C387.316 64 383.741 67.59 383.741 71.991C383.741 76.392 387.316 79.982 391.735 79.982H580.326L418.061 242.578C415.766 244.856 415.094 248.321 416.328 251.287C417.561 254.283 420.481 256.219 423.714 256.219H526.909C572.394 256.219 608.011 294.394 608.011 343.12C608.011 391.908 571.629 431.581 526.909 431.581H454.646C428.898 431.581 407.209 415.162 399.371 389.723C398.09 385.509 393.656 383.292 389.377 384.416C385.161 385.727 382.788 390.191 384.1 394.405C394.03 426.712 421.73 447.563 454.646 447.563H526.909C580.451 447.563 624 400.71 624 343.12C624 285.435 581.357 240.237 526.909 240.237Z"/></svg>
